img/services/seo/optimized-site.svg

<svg xmlns:dc="http://purl.org/dc/elements/1.1/" xmlns:cc="http://creativecommons.org/ns#" xmlns:rdf="http://www.w3.org/1999/02/22-rdf-syntax-ns#" xmlns:svg="http://www.w3.org/2000/svg" xmlns="http://www.w3.org/2000/svg" xmlns:sodipodi="http://sodipodi.sourceforge.net/DTD/sodipodi-0.dtd" xmlns:inkscape="http://www.inkscape.org/namespaces/inkscape" viewBox="0 0 32 40.00000125" version="1.1" x="0px" y="0px"><g transform="translate(0,-1020.3622)"><path style="color:#000000;font-style:normal;font-variant:normal;font-weight:normal;font-stretch:normal;font-size:medium;line-height:normal;font-family:sans-serif;text-indent:0;text-align:start;text-decoration:none;text-decoration-line:none;text-decoration-style:solid;text-decoration-color:#000000;letter-spacing:normal;word-spacing:normal;text-transform:none;direction:ltr;block-progression:tb;writing-mode:lr-tb;baseline-shift:baseline;text-anchor:start;white-space:normal;clip-rule:nonzero;display:inline;overflow:visible;visibility:visible;opacity:1;isolation:auto;mix-blend-mode:normal;color-interpolation:sRGB;color-interpolation-filters:linearRGB;solid-color:#000000;solid-opacity:1;fill:#000000;fill-opacity:1;fill-rule:nonzero;stroke:none;stroke-width:1;stroke-linecap:round;stroke-linejoin:round;stroke-miterlimit:4;stroke-dasharray:none;stroke-dashoffset:0;stroke-opacity:1;color-rendering:auto;image-rendering:auto;shape-rendering:auto;text-rendering:auto;enable-background:accumulate" d="M 2.5 3 C 2.2238691 3 2.0000276 3.2239 2 3.5 L 2 25.5 C 2.0000276 25.7761 2.2238691 26 2.5 26 L 6.75 26 L 6.75 25 L 3 25 L 3 8 L 27 8 L 27 18.236328 C 27.0092 18.284328 27.034233 18.3263 27.039062 18.375 C 27.31712 18.1484 27.659482 18.034144 28 18.027344 L 28 3.5 C 27.999972 3.2239 27.776131 3 27.5 3 L 2.5 3 z M 3 4 L 27 4 L 27 7 L 3 7 L 3 4 z M 4.5 5 A 0.5 0.5 0 0 0 4 5.5 A 0.5 0.5 0 0 0 4.5 6 A 0.5 0.5 0 0 0 5 5.5 A 0.5 0.5 0 0 0 4.5 5 z M 6.5 5 A 0.5 0.5 0 0 0 6 5.5 A 0.5 0.5 0 0 0 6.5 6 A 0.5 0.5 0 0 0 7 5.5 A 0.5 0.5 0 0 0 6.5 5 z M 8.5 5 A 0.5 0.5 0 0 0 8 5.5 A 0.5 0.5 0 0 0 8.5 6 A 0.5 0.5 0 0 0 9 5.5 A 0.5 0.5 0 0 0 8.5 5 z M 18.642578 8.6289062 L 18.642578 8.6308594 A 0.50005 0.50005 0 0 0 18.220703 8.8730469 L 17.324219 10.367188 A 0.50005 0.50005 0 0 0 17.246094 10.408203 L 11.541016 14.132812 A 0.50005 0.50005 0 0 0 11.314453 14.548828 L 11.302734 18.972656 C 10.52951 18.917567 10.047858 18.772669 9.7558594 18.601562 C 9.3867359 18.385262 9.2443195 18.134897 9.0683594 17.779297 C 8.8923993 17.423697 8.7040839 16.947372 8.2304688 16.576172 C 7.7568535 16.204972 7.0625 16 6 16 A 0.50005 0.50005 0 1 0 6 17 C 6.9375 17 7.369123 17.171981 7.6132812 17.363281 C 7.8574395 17.554581 7.9786945 17.828256 8.1738281 18.222656 C 8.3689618 18.617056 8.6591625 19.116691 9.25 19.462891 C 9.7965856 19.783161 10.569666 19.962012 11.703125 19.988281 A 0.50005 0.50005 0 0 0 11.800781 20 L 16.763672 20 A 0.50005 0.50005 0 0 0 17.183594 19.773438 L 20.90625 14.070312 A 0.50005 0.50005 0 0 0 20.949219 13.988281 L 22.443359 13.091797 A 0.50005 0.50005 0 0 0 22.539062 12.310547 L 19.003906 8.7734375 A 0.50005 0.50005 0 0 0 18.642578 8.6289062 z M 18.748047 9.9355469 L 21.378906 12.566406 L 20.496094 13.095703 L 18.21875 10.820312 L 18.21875 10.818359 L 18.748047 9.9355469 z M 17.451172 11.466797 L 19.847656 13.863281 L 16.494141 19 L 13.021484 19 L 14.826172 17.195312 C 15.382997 17.457231 16.07196 17.365544 16.529297 16.908203 C 17.110899 16.326603 17.110892 15.368709 16.529297 14.787109 C 15.947695 14.205509 14.989805 14.205509 14.408203 14.787109 C 13.951235 15.244081 13.858014 15.931696 14.119141 16.488281 L 12.304688 18.302734 L 12.314453 14.822266 L 17.451172 11.466797 z M 15.46875 15.34375 C 15.595663 15.34375 15.722539 15.394391 15.822266 15.494141 C 16.021713 15.693541 16.02172 16.001672 15.822266 16.201172 C 15.62282 16.400572 15.314681 16.400572 15.115234 16.201172 C 14.915781 16.001672 14.915788 15.693541 15.115234 15.494141 C 15.214961 15.394391 15.341837 15.34375 15.46875 15.34375 z M 23.408203 18 A 0.50004997 0.50004997 0 0 0 22.908203 18.5 L 22.908203 19.394531 C 22.598165 19.490531 22.299623 19.612019 22.011719 19.761719 L 21.382812 19.134766 A 0.50004997 0.50004997 0 0 0 20.675781 19.134766 L 19.132812 20.675781 A 0.50004997 0.50004997 0 0 0 19.132812 21.382812 L 19.763672 22.013672 C 19.612866 22.301672 19.487374 22.599756 19.390625 22.910156 L 18.5 22.910156 A 0.50004997 0.50004997 0 0 0 18 23.410156 L 18 25.591797 A 0.50004997 0.50004997 0 0 0 18.5 26.091797 L 19.392578 26.091797 C 19.488618 26.402697 19.61148 26.701634 19.761719 26.990234 L 19.132812 27.619141 A 0.50004997 0.50004997 0 0 0 19.132812 28.326172 L 20.675781 29.867188 A 0.50004997 0.50004997 0 0 0 21.382812 29.867188 L 22.013672 29.238281 C 22.300723 29.388581 22.598929 29.510822 22.908203 29.607422 L 22.908203 30.5 A 0.50004997 0.50004997 0 0 0 23.408203 31 L 25.591797 31 A 0.50004997 0.50004997 0 0 0 26.091797 30.5 L 26.091797 29.607422 C 26.401815 29.511422 26.700396 29.389934 26.988281 29.240234 L 27.617188 29.867188 A 0.50004997 0.50004997 0 0 0 28.324219 29.867188 L 29.867188 28.326172 A 0.50004997 0.50004997 0 0 0 29.867188 27.619141 L 29.236328 26.988281 C 29.387155 26.700281 29.512607 26.402197 29.609375 26.091797 L 30.5 26.091797 A 0.50004997 0.50004997 0 0 0 31 25.591797 L 31 23.410156 A 0.50004997 0.50004997 0 0 0 30.5 22.910156 L 29.607422 22.910156 C 29.511432 22.599456 29.388428 22.300219 29.238281 22.011719 L 29.867188 21.382812 A 0.50004997 0.50004997 0 0 0 29.867188 20.675781 L 28.324219 19.134766 A 0.50004997 0.50004997 0 0 0 27.617188 19.134766 L 26.986328 19.763672 C 26.699193 19.613272 26.401175 19.491131 26.091797 19.394531 L 26.091797 18.5 A 0.50004997 0.50004997 0 0 0 25.591797 18 L 23.408203 18 z M 23.908203 19 L 25.091797 19 L 25.091797 19.71875 A 0.50004997 0.50004997 0 0 0 25.480469 20.207031 C 25.963766 20.317131 26.423925 20.507984 26.84375 20.771484 A 0.50004997 0.50004997 0 0 0 27.462891 20.701172 L 27.970703 20.195312 L 28.806641 21.029297 L 28.300781 21.535156 A 0.50004997 0.50004997 0 0 0 28.230469 22.152344 C 28.49287 22.573044 28.682265 23.035731 28.791016 23.519531 A 0.50004997 0.50004997 0 0 0 29.279297 23.910156 L 30 23.910156 L 30 25.091797 L 29.28125 25.091797 A 0.50004997 0.50004997 0 0 0 28.792969 25.480469 C 28.682819 25.963769 28.492075 26.425903 28.228516 26.845703 A 0.50004997 0.50004997 0 0 0 28.298828 27.464844 L 28.806641 27.972656 L 27.970703 28.806641 L 27.464844 28.302734 A 0.50004997 0.50004997 0 0 0 26.847656 28.232422 C 26.426997 28.494722 25.964178 28.684169 25.480469 28.792969 A 0.50004997 0.50004997 0 0 0 25.091797 29.279297 L 25.091797 30 L 23.908203 30 L 23.908203 29.28125 A 0.50004997 0.50004997 0 0 0 23.519531 28.794922 C 23.036202 28.684822 22.576103 28.494069 22.15625 28.230469 A 0.50004997 0.50004997 0 0 0 21.537109 28.300781 L 21.029297 28.806641 L 20.193359 27.972656 L 20.699219 27.466797 A 0.50004997 0.50004997 0 0 0 20.769531 26.847656 C 20.50713 26.426956 20.317735 25.966122 20.208984 25.482422 A 0.50004997 0.50004997 0 0 0 19.720703 25.091797 L 19 25.091797 L 19 23.910156 L 19.71875 23.910156 A 0.50004997 0.50004997 0 0 0 20.207031 23.521484 C 20.317154 23.038184 20.507956 22.57605 20.771484 22.15625 A 0.50004997 0.50004997 0 0 0 20.701172 21.537109 L 20.193359 21.029297 L 21.029297 20.195312 L 21.535156 20.699219 A 0.50004997 0.50004997 0 0 0 22.152344 20.769531 C 22.573031 20.507131 23.035791 20.315831 23.519531 20.207031 A 0.50004997 0.50004997 0 0 0 23.908203 19.722656 L 23.908203 19 z M 11.625 20.730469 A 0.50005 0.50005 0 0 0 11.125 21.230469 L 11.125 21.742188 C 10.980813 21.792187 10.840484 21.847962 10.703125 21.914062 L 10.341797 21.554688 A 0.50005 0.50005 0 0 0 9.6347656 21.554688 L 8.5742188 22.615234 A 0.50005 0.50005 0 0 0 8.5742188 23.322266 L 8.9355469 23.683594 C 8.8688199 23.821194 8.809774 23.960969 8.7597656 24.105469 L 8.25 24.105469 A 0.50005 0.50005 0 0 0 7.75 24.605469 L 7.75 26.105469 A 0.50005 0.50005 0 0 0 8.25 26.605469 L 8.7617188 26.605469 C 8.8112127 26.749669 8.8674741 26.889944 8.9335938 27.027344 L 8.5742188 27.388672 A 0.50005 0.50005 0 0 0 8.5742188 28.095703 L 9.6347656 29.15625 A 0.50005 0.50005 0 0 0 10.341797 29.15625 L 10.703125 28.794922 C 10.840543 28.861922 10.980686 28.91875 11.125 28.96875 L 11.125 29.480469 A 0.50005 0.50005 0 0 0 11.625 29.980469 L 13.125 29.980469 A 0.50005 0.50005 0 0 0 13.625 29.480469 L 13.625 28.96875 C 13.769342 28.91875 13.909375 28.861122 14.046875 28.794922 L 14.408203 29.15625 A 0.50005 0.50005 0 0 0 15.115234 29.15625 L 16.175781 28.095703 A 0.50005 0.50005 0 0 0 16.175781 27.386719 L 15.816406 27.027344 C 15.883006 26.889944 15.940294 26.749769 15.990234 26.605469 L 16.5 26.605469 A 0.50005 0.50005 0 0 0 17 26.105469 L 17 24.605469 A 0.50005 0.50005 0 0 0 16.5 24.105469 L 15.988281 24.105469 C 15.938711 23.961069 15.880707 23.821194 15.814453 23.683594 L 16.175781 23.322266 A 0.50005 0.50005 0 0 0 16.175781 22.615234 L 15.115234 21.554688 A 0.50005 0.50005 0 0 0 14.408203 21.554688 L 14.046875 21.916016 C 13.909258 21.849016 13.769536 21.790234 13.625 21.740234 L 13.625 21.230469 A 0.50005 0.50005 0 0 0 13.125 20.730469 L 11.625 20.730469 z M 12.125 21.730469 L 12.625 21.730469 L 12.625 22.068359 A 0.50005 0.50005 0 0 0 13.013672 22.554688 C 13.328821 22.626687 13.630541 22.751928 13.904297 22.923828 A 0.50005 0.50005 0 0 0 14.523438 22.853516 L 14.761719 22.615234 L 15.115234 22.96875 L 14.876953 23.205078 A 0.50005 0.50005 0 0 0 14.806641 23.824219 C 14.977733 24.098519 15.102908 24.399444 15.173828 24.714844 A 0.50005 0.50005 0 0 0 15.660156 25.105469 L 16 25.105469 L 16 25.605469 L 15.662109 25.605469 A 0.50005 0.50005 0 0 0 15.173828 25.994141 C 15.101988 26.309241 14.978505 26.609113 14.806641 26.882812 A 0.50005 0.50005 0 0 0 14.876953 27.503906 L 15.115234 27.742188 L 14.761719 28.09375 L 14.525391 27.857422 A 0.50005 0.50005 0 0 0 13.90625 27.787109 C 13.631933 27.958209 13.331056 28.081444 13.015625 28.152344 A 0.50005 0.50005 0 0 0 12.625 28.640625 L 12.625 28.980469 L 12.125 28.980469 L 12.125 28.642578 A 0.50005 0.50005 0 0 0 11.736328 28.154297 C 11.42115 28.082297 11.119485 27.959009 10.845703 27.787109 A 0.50005 0.50005 0 0 0 10.226562 27.855469 L 9.9882812 28.09375 L 9.6347656 27.740234 L 9.8730469 27.501953 A 0.50005 0.50005 0 0 0 9.9433594 26.884766 C 9.7722672 26.610566 9.6470917 26.309541 9.5761719 25.994141 A 0.50005 0.50005 0 0 0 9.0898438 25.603516 L 8.75 25.603516 L 8.75 25.103516 L 9.0878906 25.103516 A 0.50005 0.50005 0 0 0 9.5761719 24.714844 C 9.6479849 24.399744 9.7715248 24.098019 9.9433594 23.824219 A 0.50005 0.50005 0 0 0 9.8730469 23.205078 L 9.6347656 22.966797 L 9.9882812 22.613281 L 10.224609 22.849609 A 0.50005 0.50005 0 0 0 10.84375 22.919922 C 11.118067 22.748822 11.418944 22.625587 11.734375 22.554688 A 0.50005 0.50005 0 0 0 12.125 22.068359 L 12.125 21.730469 z M 24.5 22.001953 C 23.127873 22.001953 22 23.1276 22 24.5 C 22 25.8725 23.127903 27 24.5 27 C 25.872247 27 27 25.8722 27 24.5 C 27 23.128 25.872277 22.001953 24.5 22.001953 z M 24.5 23.001953 C 25.326123 23.001953 26 23.6741 26 24.5 C 26 25.3261 25.326153 26 24.5 26 C 23.674097 26 23 25.3257 23 24.5 C 23 23.6745 23.674127 23.001953 24.5 23.001953 z M 12.375 23.708984 C 11.472097 23.708984 10.728516 24.452269 10.728516 25.355469 C 10.728516 26.258669 11.472097 27 12.375 27 C 13.277959 27 14.021484 26.258369 14.021484 25.355469 C 14.021484 24.452469 13.277959 23.708984 12.375 23.708984 z M 12.375 24.708984 C 12.731841 24.708984 13.021484 24.998669 13.021484 25.355469 C 13.021484 25.712169 12.731841 26 12.375 26 C 12.018303 26 11.728516 25.711869 11.728516 25.355469 C 11.728516 24.998869 12.018303 24.708984 12.375 24.708984 z " transform="translate(0,1020.3622)"/></g></svg>

<svg xmlns="http://www.w3.org/2000/svg" viewBox="0 0 32 40.00000125"><path style="line-height:normal;text-indent:0;text-align:start;text-decoration-line:none;text-decoration-style:solid;text-decoration-color:#000;text-transform:none;block-progression:tb;isolation:auto;mix-blend-mode:normal" d="M2.5 3a.5.5 0 0 0-.5.5v22a.5.5 0 0 0 .5.5h4.25v-1H3V8h24v10.236c.01.048.034.09.04.139.277-.227.62-.34.96-.348V3.5a.5.5 0 0 0-.5-.5h-25zM3 4h24v3H3V4zm1.5 1a.5.5 0 0 0-.5.5.5.5 0 0 0 .5.5.5.5 0 0 0 .5-.5.5.5 0 0 0-.5-.5zm2 0a.5.5 0 0 0-.5.5.5.5 0 0 0 .5.5.5.5 0 0 0 .5-.5.5.5 0 0 0-.5-.5zm2 0a.5.5 0 0 0-.5.5.5.5 0 0 0 .5.5.5.5 0 0 0 .5-.5.5.5 0 0 0-.5-.5zm10.143 3.629v.002a.5.5 0 0 0-.422.242l-.897 1.494a.5.5 0 0 0-.078.041l-5.705 3.725a.5.5 0 0 0-.227.416l-.011 4.424c-.773-.055-1.255-.2-1.547-.371-.37-.217-.512-.467-.688-.823-.176-.355-.364-.832-.838-1.203C7.757 16.205 7.062 16 6 16a.5.5 0 1 0 0 1c.938 0 1.37.172 1.613.363.244.192.366.465.56.86.196.394.486.894 1.077 1.24.547.32 1.32.499 2.453.525a.5.5 0 0 0 .098.012h4.963a.5.5 0 0 0 .42-.227l3.722-5.703a.5.5 0 0 0 .043-.082l1.494-.896a.5.5 0 0 0 .096-.781l-3.535-3.538a.5.5 0 0 0-.361-.144zm.105 1.307l2.63 2.63-.882.53-2.277-2.276v-.002l.529-.882zm-1.297 1.53l2.397 2.397L16.494 19h-3.473l1.805-1.805c.557.262 1.246.17 1.703-.287a1.507 1.507 0 0 0 0-2.12 1.507 1.507 0 0 0-2.12 0 1.505 1.505 0 0 0-.29 1.7l-1.814 1.815.01-3.48 5.136-3.356zm-1.982 3.878a.5.5 0 0 1 .353.15c.2.2.2.508 0 .707-.2.2-.507.2-.707 0-.2-.2-.2-.507 0-.707a.5.5 0 0 1 .354-.15zM23.409 18a.5.5 0 0 0-.5.5v.895c-.31.096-.61.217-.897.367l-.63-.627a.5.5 0 0 0-.706 0l-1.543 1.54a.5.5 0 0 0 0 .708l.63.63c-.15.289-.276.587-.372.897H18.5a.5.5 0 0 0-.5.5v2.182a.5.5 0 0 0 .5.5h.893c.096.31.218.61.369.898l-.63.63a.5.5 0 0 0 0 .706l1.544 1.541a.5.5 0 0 0 .707 0l.63-.629c.288.15.586.273.895.37v.892a.5.5 0 0 0 .5.5h2.184a.5.5 0 0 0 .5-.5v-.893a5.37 5.37 0 0 0 .896-.367l.63.627a.5.5 0 0 0 .706 0l1.543-1.54a.5.5 0 0 0 0-.708l-.63-.63c.15-.289.276-.587.372-.897h.891a.5.5 0 0 0 .5-.5V23.41a.5.5 0 0 0-.5-.5h-.893a5.384 5.384 0 0 0-.369-.898l.63-.63a.5.5 0 0 0 0-.706l-1.544-1.541a.5.5 0 0 0-.707 0l-.63.629a5.373 5.373 0 0 0-.895-.37V18.5a.5.5 0 0 0-.5-.5h-2.184zm.5 1h1.183v.719a.5.5 0 0 0 .388.488c.484.11.944.301 1.364.564a.5.5 0 0 0 .619-.07l.508-.506.836.834-.506.506a.5.5 0 0 0-.07.617c.262.421.451.884.56 1.368a.5.5 0 0 0 .488.39H30v1.182h-.719a.5.5 0 0 0-.488.388c-.11.484-.3.946-.564 1.366a.5.5 0 0 0 .07.619l.508.508-.836.834-.506-.504a.5.5 0 0 0-.617-.07 4.433 4.433 0 0 1-1.368.56.5.5 0 0 0-.388.486V30h-1.184v-.719a.5.5 0 0 0-.388-.486 4.4 4.4 0 0 1-1.364-.565.5.5 0 0 0-.619.07l-.508.507-.836-.834.506-.506a.5.5 0 0 0 .07-.62 4.403 4.403 0 0 1-.56-1.365.5.5 0 0 0-.488-.39H19V23.91h.719a.5.5 0 0 0 .488-.389c.11-.483.301-.945.564-1.365a.5.5 0 0 0-.07-.619l-.508-.508.836-.834.506.504a.5.5 0 0 0 .617.07 4.437 4.437 0 0 1 1.368-.562.5.5 0 0 0 .388-.484V19zm-12.284 1.73a.5.5 0 0 0-.5.5v.512c-.144.05-.285.106-.422.172l-.361-.36a.5.5 0 0 0-.707 0l-1.06 1.061a.5.5 0 0 0 0 .707l.36.362a3.853 3.853 0 0 0-.175.421h-.51a.5.5 0 0 0-.5.5v1.5a.5.5 0 0 0 .5.5h.512c.05.145.105.285.172.422l-.36.362a.5.5 0 0 0 0 .707l1.06 1.06a.5.5 0 0 0 .708 0l.361-.361c.138.067.278.124.422.174v.511a.5.5 0 0 0 .5.5h1.5a.5.5 0 0 0 .5-.5v-.511a3.95 3.95 0 0 0 .422-.174l.361.361a.5.5 0 0 0 .707 0l1.06-1.06a.5.5 0 0 0 0-.71l-.359-.359c.067-.137.124-.277.174-.422h.51a.5.5 0 0 0 .5-.5v-1.5a.5.5 0 0 0-.5-.5h-.512a3.855 3.855 0 0 0-.174-.421l.362-.362a.5.5 0 0 0 0-.707l-1.06-1.06a.5.5 0 0 0-.708 0l-.361.361a3.797 3.797 0 0 0-.422-.176v-.51a.5.5 0 0 0-.5-.5h-1.5zm.5 1h.5v.338a.5.5 0 0 0 .389.487c.315.072.617.197.89.369a.5.5 0 0 0 .62-.07l.238-.239.353.354-.238.236a.5.5 0 0 0-.07.62c.17.274.296.574.367.89a.5.5 0 0 0 .486.39H16v.5h-.338a.5.5 0 0 0-.488.39 2.867 2.867 0 0 1-.367.888.5.5 0 0 0 .07.62l.238.24-.353.35-.237-.236a.5.5 0 0 0-.619-.07 2.872 2.872 0 0 1-.89.365.5.5 0 0 0-.391.489v.34h-.5v-.338a.5.5 0 0 0-.389-.489 2.881 2.881 0 0 1-.89-.367.5.5 0 0 0-.62.068l-.238.239-.353-.354.238-.238a.5.5 0 0 0 .07-.617 2.876 2.876 0 0 1-.367-.89.5.5 0 0 0-.486-.391h-.34v-.5h.338a.5.5 0 0 0 .488-.39c.072-.314.196-.616.367-.89a.5.5 0 0 0-.07-.619l-.238-.238.353-.354.237.237a.5.5 0 0 0 .619.07c.274-.171.575-.294.89-.365a.5.5 0 0 0 .391-.487v-.338zm12.375.272A2.51 2.51 0 0 0 22 24.5a2.51 2.51 0 0 0 2.5 2.5 2.51 2.51 0 0 0 2.5-2.5 2.51 2.51 0 0 0-2.5-2.498zm0 1c.826 0 1.5.672 1.5 1.498s-.674 1.5-1.5 1.5-1.5-.674-1.5-1.5.674-1.498 1.5-1.498zm-12.125.707c-.903 0-1.646.743-1.646 1.646 0 .904.743 1.645 1.646 1.645.903 0 1.646-.742 1.646-1.645s-.743-1.646-1.646-1.646zm0 1a.645.645 0 1 1 0 1.291.645.645 0 1 1 0-1.291z" color="#000" font-weight="400" font-family="sans-serif" white-space="normal" overflow="visible"/></svg>
